X: 8
T: Ner Li
Z: Gideon Klionsky
M: 2/4
L: 1/8
Q: 1/4=80
K: C
C: Levin Kipnis (words), Daniel Samburski (music)
%
% Instruments and chords:
I: MIDI=gchordon % play chords
I: MIDI=program 72 % Clarinet for melody
I: MIDI=gchord fczc % pattern of bass and chords
I: MIDI=bassprog 16 % Dulcimer for the bass note
I: MIDI=chordprog 35 % Electric bass for the chords
I: MIDI=transpose 0 % Play in the key written
%
"C" EFGA | G2 E2 | "G7" FEDF | "C" E4 |
"C" EFGA | G2 E2 | "G7" F2 ED | "C" C2- "E7" C2 |
|: "Am" E2 AB | c2 c2 | "Em" B2 B2 | "F" A2 z2 |
"C" G2  GA | G3 E | "G7" F2 ED |1 "E7" E2 z2 :|]2 "C" C4|]
%
W:נֵר לִי, נֵר לִי, נֵר לִי דָּקִיק
W:בַּחֲנֻכָּה נֵרִי אַדְלִיק
W: > בַּחֲנֻכָּה נֵרִי יָאִיר
W: > בַּחֲנֻכָּה שִׁירִי אָשִׁיר
W:
W:Ner li, ner li, ner li dakik
W:BaChanukah neri adlik
W: > BaChanukah neri ya'ir
W: > BaChanukah shiri ashir

